X:1
T: Needlecase (R-170)
M: C|
L: 1/8
R: reel
K: D
(3efg|"D"aAgA fedf|"G"fg2f g2(3efg|"D"aAgA fedA|"A" BABd A2(3efg |
"D"aAgA fedf|"G"fg2f g2A2- |"A"ABcd edcA|BABc "D"d2:|
|:FE|"D"D2d2 dBA2|"G"B3=c B4 |"D"A2AB AFDF|"A"E3F E2FE|
"D"DFAB dBA2|"G"B3=c B2A2- |"A"ABcd edcA|BABc "D"d2:|

